src/icons/icons_set_04/031-etoile-pleine.svg

<svg height="50" viewBox="0 0 50 50" width="50" xmlns="http://www.w3.org/2000/svg"><path d="m48.8473214 18.2547529-15.9998752-2.3215251c1.1529013.1656082.4941005 0-.3294004-1.6590925l-2.4734975-5.14288553-3.6293934-7.29579141c-.2088012-.5403417-.7460034-.87840332-1.3205961-.83105177h-.3294004c-.5481319.04308244-1.0404444.35359903-1.3176015.83105177l-6.9293864 14.59459384c.4941006-1.1592569 0-.4968244-1.6499965-.1656081l-5.60879027.8280407-8.08228774.9876267c-.80959868.2991753-1.29353545 1.1346186-1.15290136 1.9903088.00493904.2594344.12595418.5027989.32940039.6624326l11.04988578 10.7795845c.0271093.5581804-.0283966 1.1173136-.1647002 1.6590925l-.9911957 5.63971-1.31760156 8.1298542c-.16769475.8280407.32940039 1.8247006 1.15290136 1.9903088.3294004.1656081.823501 0 1.1529014-.1656082l13.5263778-7.1331943c.57625.147901 1.1309067.3705819 1.6499965.6624326l4.9469949 2.6557523 7.2587868 3.8150094c.3918999.227508.8588112.2854609 1.2939679.1606071.4351568-.1248538.8013444-.4218368 1.0148293-.8230396.1676948-.3342274.332395-.8310518.1676948-1.1622681l-2.4734975-14.9197881c.3441456-.4763134.7299842-.9207105 1.1529014-1.3278761l9.7322842-9.7859357c.3154248-.302827.4938778-.7222457.4938778-1.1607625s-.178453-.8579355-.4938778-1.1607626c-.1579094-.2056082-.4004703-.3275573-.6588008-.3312162z"/></svg>

<?xml version="1.0" encoding="UTF-8"?>
<svg width="50px" height="50px" viewBox="0 0 50 50" version="1.1" xmlns="http://www.w3.org/2000/svg" xmlns:xlink="http://www.w3.org/1999/xlink">
    <!-- Generator: Sketch 52.4 (67378) - http://www.bohemiancoding.com/sketch -->
    <title>031-etoile-pleine</title>
    <desc>Created with Sketch.</desc>
    <g id="031-etoile-pleine" stroke="none" stroke-width="1" fill="none" fill-rule="evenodd">
        <g id="Group" transform="translate(4.000000, 5.000000)">
            <g id="088-etoile-pleine">
                <g id="ICONSET-01">
                    <g id="088-etoile-pleine"></g>
                </g>
            </g>
        </g>
        <path d="M48.8473214,18.2547529 L32.8474462,15.9332278 C34.0003475,16.098836 33.3415467,15.9332278 32.5180458,14.2741353 L30.0445483,9.13124977 L26.4151549,1.83545836 C26.2063537,1.29511666 25.6691515,0.957055041 25.0945588,1.00440659 L24.7651584,1.00440659 C24.2170265,1.04748903 23.724714,1.35800562 23.4475569,1.83545836 L16.5181705,16.4300522 C17.0122711,15.2707953 16.5181705,15.9332278 14.868174,16.2644441 L9.25938373,17.0924848 L1.17709599,18.0801115 C0.367497308,18.3792868 -0.116439464,19.2147301 0.0241946294,20.0704203 C0.0291336741,20.3298547 0.15014881,20.5732192 0.353595019,20.7328529 L11.4034808,31.5124374 C11.4305901,32.0706178 11.3750842,32.629751 11.2387806,33.1715299 L10.2475849,38.8112399 L8.92998334,46.9410941 C8.76228859,47.7691348 9.25938373,48.7657947 10.0828847,48.9314029 C10.4122851,49.097011 10.9063857,48.9314029 11.2357861,48.7657947 L24.7621639,41.6326004 C25.3384139,41.7805014 25.8930706,42.0031823 26.4121604,42.295033 L31.3591553,44.9507853 L38.6179421,48.7657947 C39.009842,48.9933027 39.4767533,49.0512556 39.91191,48.9264018 C40.3470668,48.801548 40.7132544,48.504565 40.9267393,48.1033622 C41.0944341,47.7691348 41.2591343,47.2723104 41.0944341,46.9410941 L38.6209366,32.021306 C38.9650822,31.5449926 39.3509208,31.1005955 39.773838,30.6934299 L49.5061222,20.9074942 C49.821547,20.6046672 50,20.1852485 50,19.7467317 C50,19.3082149 49.821547,18.8887962 49.5061222,18.5859691 C49.3482128,18.3803609 49.1056519,18.2584118 48.8473214,18.2547529 Z" id="Shape" fill="#000000" fill-rule="nonzero"></path>
    </g>
</svg>
